assets/images/icons/pencil2.svg

<path class="path1" d="M384 640l128-64 448-448-64-64-448 448-64 128zM289.3 867.098c-31.632-66.728-65.666-100.762-132.396-132.394l99.096-272.792 128-77.912 384-384h-192l-384 384-192 640 640-192 384-384v-192l-384 384-77.912 128z"></path>

<path class="path1" d="M384 640l128-64 448-448-64-64-448 448-64 128zm-94.7 227.098c-31.632-66.728-65.666-100.762-132.396-132.394L256 461.912 384 384 768 0H576L192 384 0 1024l640-192 384-384V256L640 640l-77.912 128z"/>
